material/.icons/material/pencil-lock.svg

<svg xmlns="http://www.w3.org/2000/svg" viewBox="0 0 24 24"><path d="M5.5 2A2.5 2.5 0 003 4.5V5a1 1 0 00-1 1v4a1 1 0 001 1h5a1 1 0 001-1V6a1 1 0 00-1-1v-.5A2.5 2.5 0 005.5 2m0 1A1.5 1.5 0 017 4.5V5H4v-.5A1.5 1.5 0 015.5 3m14.16 0c-.26 0-.5.09-.69.28l-1.84 1.85 3.75 3.75 1.84-1.85c.39-.39.39-1.03 0-1.4l-2.34-2.35c-.2-.19-.47-.28-.72-.28m-3.6 3.19L5 17.25V21h3.75L19.81 9.94l-3.75-3.75z"/></svg>

<?xml version="1.0" encoding="UTF-8"?><!DOCTYPE svg PUBLIC "-//W3C//DTD SVG 1.1//EN" "http://www.w3.org/Graphics/SVG/1.1/DTD/svg11.dtd"><svg xmlns="http://www.w3.org/2000/svg" xmlns:xlink="http://www.w3.org/1999/xlink" version="1.1" id="mdi-pencil-lock" width="24" height="24" viewBox="0 0 24 24"><path d="M5.5,2A2.5,2.5 0 0,0 3,4.5V5A1,1 0 0,0 2,6V10A1,1 0 0,0 3,11H8A1,1 0 0,0 9,10V6A1,1 0 0,0 8,5V4.5A2.5,2.5 0 0,0 5.5,2M5.5,3A1.5,1.5 0 0,1 7,4.5V5H4V4.5A1.5,1.5 0 0,1 5.5,3M19.66,3C19.4,3 19.16,3.09 18.97,3.28L17.13,5.13L20.88,8.88L22.72,7.03C23.11,6.64 23.11,6 22.72,5.63L20.38,3.28C20.18,3.09 19.91,3 19.66,3M16.06,6.19L5,17.25V21H8.75L19.81,9.94L16.06,6.19Z" /></svg>
